src/assets/img/globalping/globalping-performance-icon.svg

<svg width="58" height="60" viewBox="0 0 58 60" fill="none" xmlns="http://www.w3.org/2000/svg">
<path d="M26.4 2.58565C27.8851 1.72822 29.7149 1.72822 31.2 2.58565L51.3415 14.2144C52.8267 15.0718 53.7415 16.6564 53.7415 18.3713V41.6287C53.7415 43.3436 52.8267 44.9282 51.3415 45.7857L31.2 57.4144C29.7149 58.2718 27.8851 58.2718 26.4 57.4144L6.25847 45.7857C4.77335 44.9282 3.85847 43.3436 3.85847 41.6287V18.3713C3.85847 16.6564 4.77334 15.0718 6.25847 14.2144L26.4 2.58565Z" fill="#17D4A7" stroke="#69E7C8" stroke-width="2.4" stroke-linecap="round" stroke-linejoin="round"/>
<path d="M26.3999 9.78567C27.8851 8.92823 29.7148 8.92823 31.2 9.78567L45.1061 17.8144C46.5912 18.6718 47.5061 20.2564 47.5061 21.9713V38.0287C47.5061 39.7436 46.5912 41.3282 45.1061 42.1857L31.2 50.2144C29.7148 51.0718 27.8851 51.0718 26.4 50.2144L12.4938 42.1857C11.0087 41.3282 10.0938 39.7436 10.0938 38.0287V21.9713C10.0938 20.2564 11.0087 18.6718 12.4938 17.8144L26.3999 9.78567Z" fill="url(#paint0_radial_8791_3700)" stroke="#69E7C8" stroke-width="2.4" stroke-linecap="round" stroke-linejoin="round"/>
<path d="M30.2 16L16.2 32.8H28.8L27.4 44L41.4 27.2H28.8L30.2 16Z" fill="white" stroke="#17233A" stroke-width="2.4" stroke-linecap="round" stroke-linejoin="round"/>
<defs>
<radialGradient id="paint0_radial_8791_3700" cx="0" cy="0" r="1" gradientUnits="userSpaceOnUse" gradientTransform="translate(15.5999 14.4) rotate(59.3814) scale(34.1631)">
<stop stop-color="white" stop-opacity="0.89"/>
<stop offset="1" stop-color="white" stop-opacity="0"/>
</radialGradient>
</defs>
</svg>

<svg xmlns="http://www.w3.org/2000/svg" width="58" height="60" fill="none">
  <path fill="#17D4A7" stroke="#69E7C8" stroke-linecap="round" stroke-linejoin="round" stroke-width="2.4" d="M26.4 2.586a4.8 4.8 0 0 1 4.8 0l20.142 11.628a4.8 4.8 0 0 1 2.4 4.157V41.63a4.8 4.8 0 0 1-2.4 4.157L31.2 57.414a4.8 4.8 0 0 1-4.8 0L6.258 45.786a4.8 4.8 0 0 1-2.4-4.157V18.37a4.8 4.8 0 0 1 2.4-4.157z"/>
  <path fill="url(#a)" stroke="#69E7C8" stroke-linecap="round" stroke-linejoin="round" stroke-width="2.4" d="M26.4 9.786a4.8 4.8 0 0 1 4.8 0l13.906 8.028a4.8 4.8 0 0 1 2.4 4.157V38.03a4.8 4.8 0 0 1-2.4 4.157L31.2 50.214a4.8 4.8 0 0 1-4.8 0l-13.906-8.028a4.8 4.8 0 0 1-2.4-4.157V21.97a4.8 4.8 0 0 1 2.4-4.157z"/>
  <path fill="#fff" stroke="#17233A" stroke-linecap="round" stroke-linejoin="round" stroke-width="2.4" d="m30.2 16-14 16.8h12.6L27.4 44l14-16.8H28.8z"/>
  <defs>
    <radialGradient id="a" cx="0" cy="0" r="1" gradientTransform="rotate(59.381 -4.828 20.88)scale(34.1631)" gradientUnits="userSpaceOnUse">
      <stop stop-color="#fff" stop-opacity=".89"/>
      <stop offset="1" stop-color="#fff" stop-opacity="0"/>
    </radialGradient>
  </defs>
</svg>
